svg/track_light.svg

<svg xmlns="http://www.w3.org/2000/svg" viewBox="0 0 24 24"><path d="M6 1v2h3v3.4L4.11 4.38l-2.68 6.46 5.54 2.3 4.97 3.68 1.85.77 3.83-9.24-1.85-.77L11 6.87V3h3V1zm15.81 5.29-2.31.96.76 1.85 2.31-.96zm-2.03 7.28L19 15.42l2.79 1.15.76-1.85zm-3.59 5.36-1.85.76.96 2.31 1.85-.77z"/></svg>

<?xml version="1.0" encoding="UTF-8"?><!DOCTYPE svg PUBLIC "-//W3C//DTD SVG 1.1//EN" "http://www.w3.org/Graphics/SVG/1.1/DTD/svg11.dtd"><svg xmlns="http://www.w3.org/2000/svg" xmlns:xlink="http://www.w3.org/1999/xlink" version="1.1" id="mdi-track-light" width="24" height="24" viewBox="0 0 24 24"><path d="M6,1V3H9V6.4L4.11,4.38L1.43,10.84L6.97,13.14L11.94,16.82L13.79,17.59L17.62,8.35L15.77,7.58L11,6.87V3H14V1H6M21.81,6.29L19.5,7.25L20.26,9.1L22.57,8.14L21.81,6.29M19.78,13.57L19,15.42L21.79,16.57L22.55,14.72L19.78,13.57M16.19,18.93L14.34,19.69L15.3,22L17.15,21.23L16.19,18.93Z" /></svg>
